X:1
T:James Gibb editions
T:I saw my lady weeping - Morley
T:#
%%score [ 1 2 ]
L:1/8
Q:1/4=160
M:4/4
K:C
V:1 treble-8 nm="Tenor" snm="T"
V:2 bass nm="Lute"
V:1
"^I saw my lady weeping""^Thomas Morley\n(1557-1602)" z8 | z8 | z8 | z8 | z8 | z8 | z8 | z8 | %8
w: ||||||||
 z4 B4- | B4 A4- | A4 G4 | G4 F4 | E8- | E8 | E8 |[M:4/4][K:treble-8] z8 | z4 B4 | ^c4 c4 | d8- | %19
w: I|* saw|* my|la- dy|weep\-||ing,||And|sor- row|proud|
 d4 ^c4- | c4 B4- | B2 A2 A4- | A4 ^G4 | A8 | z8 | z8 | z4 G4 | G4 G4 | c8 | z4 A4 | A4 A4 | d8 | %32
w: * to|* be|* ad- van\-|* ced|so,|||In|those fair|eyes,|in|those fair|eyes|
 z4 A4 | c4 B4 | A4 A4 | G4 e4- | e4 d4- | d2 c2 c4- | c4 B4 | c8 |: z8 | z8 | z4 d4- | d4 c4- | %44
w: where|all per-|fec- tion's|kept. Her|* face|* was full|* of|woe,|||But|* such|
 c4 B4 | A8 | z4 (G4- | G2 FE D2 E2) | F8 | E8 | z4 c4 | B4 A4 | G8 | z8 | z8 | z4 e4 | d6 c2 | %57
w: * a|woe,|be\-||lieve|me,|as|wins more|hearts|||Than|mirth can|
 B8 | z8 | z8 | z4 e4 | d8- | d4 c4 | B4 A4 | B2 c2 d4- | d4 (c4 | B8) | !fermata!A8 :| %68
w: do,|||than|mirth|* can|do with|her en- ti\-|* cing||parts.|
V:2
 E,8- | E,8 | E,8- | E,8 | A,,8- | A,,8 | A,8- | A,8 | E,8- | E,8 | E,8 | ^C,4 D,4 | E,8- | E,8 | %14
 A,,4 A,2 G,2 |[M:4/4] ^F,4 F,4 | E,8 | A,,4 z4 | z4 B,,4 | ^C,4 C,4 | D,4 D,4 | E,8- | E,8 | %23
 A,,8 | A,4 F,4 | G,8- | G,8 | C,8 | z4 A,,4 | A,,4 A,,4 | D,6 C,2 | B,,8 | A,,8 | A,4 G,4 | F,8 | %35
 E,4 E,4 | F,8 | G,8- | G,8 | C,8 |: E,8 | D,4 C,4 | B,,8 | A,,6 G,,2 | ^F,,4 G,,4 | D,4 D,4 | %46
 E,6 F,2 | G,8 | D,2 E,2 F,2 D,2 | A,6 G,F, | E,4 A,,4 | ^G,,4 A,,4 | E,4 E,4 | F,8 | D,8 | C,8 | %56
 z8 | z4 E,4 | F,8 | D,8 | C,8 | B,,8 | A,,8 | E,4 A,4 | !courtesy!=G,4 F,4 | E,8- | E,8 | %67
 !fermata!A,,8 :| %68

